icons/desktop/16/svg/cursor-arrow-16.svg

<svg width="16" height="16" viewBox="0 0 16 16" fill="none" xmlns="http://www.w3.org/2000/svg">
<path fill-rule="evenodd" clip-rule="evenodd" d="M2.13511 5.08332C1.48647 3.25143 3.25168 1.48734 5.08238 2.13605L12.6244 4.80988L12.7904 4.87531C14.4587 5.60638 14.6646 7.9463 13.0804 8.94074L12.6556 9.20637L14.4144 10.9652C15.1953 11.746 15.1952 13.0134 14.4144 13.7943L13.7943 14.4144C13.0134 15.1952 11.7461 15.1953 10.9652 14.4144L9.2064 12.6556L8.93882 13.0814C7.911 14.7135 5.4537 14.4411 4.80796 12.6243L2.13511 5.08332ZM4.5814 3.55012C3.94016 3.32288 3.32195 3.94029 3.54917 4.58234L6.22203 12.1214L6.27085 12.2347C6.55313 12.7682 7.33153 12.8185 7.66929 12.2825L8.43785 11.0609C8.55941 10.8679 8.76294 10.7406 8.9896 10.7152C9.21619 10.6898 9.44166 10.7698 9.60289 10.931L12.0267 13.3538C12.2218 13.5486 12.5388 13.5488 12.7337 13.3538L13.3539 12.7337C13.5488 12.5387 13.5486 12.2218 13.3539 12.0267L10.9349 9.60676C10.8451 9.51847 10.7763 9.40778 10.7396 9.28059C10.6472 8.95942 10.7779 8.61559 11.0609 8.43781L12.2836 7.67023C12.8199 7.3331 12.7695 6.55569 12.2367 6.27375L12.1234 6.22395L4.5814 3.55012Z" fill="black"/>
</svg>

<!-- This Source Code Form is subject to the terms of the Mozilla Public
   - License, v. 2.0. If a copy of the MPL was not distributed with this
   - file, You can obtain one at http://mozilla.org/MPL/2.0/. -->
<svg xmlns="http://www.w3.org/2000/svg" width="16" height="16" fill="context-fill" fill-opacity="context-fill-opacity" viewBox="0 0 16 16">
    <path fill-rule="evenodd" d="M2.135 5.083c-.649-1.832 1.117-3.596 2.947-2.947l7.542 2.674.166.065c1.669.731 1.875 3.071.29 4.066l-.424.265 1.758 1.76c.781.78.781 2.047 0 2.828l-.62.62c-.78.781-2.048.781-2.829 0l-1.759-1.758-.267.425c-1.028 1.633-3.485 1.36-4.131-.457zM4.581 3.55A.808.808 0 0 0 3.55 4.582l2.673 7.54.049.113a.81.81 0 0 0 1.398.048l.769-1.222a.75.75 0 0 1 1.165-.13l2.424 2.423a.5.5 0 0 0 .707 0l.62-.62a.5.5 0 0 0 0-.707l-2.42-2.42a.747.747 0 0 1 .127-1.17l1.223-.767a.81.81 0 0 0-.047-1.396l-.114-.05z" clip-rule="evenodd" />
</svg>
